src/assets/icons/brilliance.svg

<svg width="14" height="14" viewBox="0 0 14 14" fill="none" xmlns="http://www.w3.org/2000/svg">
    <g clip-path="url(#clip0_1248_1188)">
        <path d="M7.22098 0.818359H6.15228V3.00018H7.22098V0.818359ZM0.274414 6.81836V7.90926H2.41182V6.81836H0.274414ZM13.0988 6.81836V7.90926H10.9614V6.81836H13.0988ZM7.22098 13.9093H6.15228V11.7274H7.22098V13.9093ZM4.54922 4.09108H8.82403V5.18199H4.54922V4.09108ZM3.48052 5.18199H4.54922V9.54563H3.48052V5.18199ZM4.54922 10.6365V9.54563H8.82403V10.6365H4.54922ZM9.89274 9.54563H8.82403V5.18199H9.89274V9.54563ZM10.9614 1.90927H12.0301V3.00018H10.9614V1.90927ZM10.9614 3.00018V4.09108H9.89274V3.00018H10.9614ZM12.0301 12.8184H10.9614V11.7274H12.0301V12.8184ZM10.9614 11.7274H9.89274V10.6365H10.9614V11.7274ZM2.41182 1.90927H1.34312V3.00018H2.41182V4.09108H3.48052V3.00018H2.41182V1.90927ZM1.34312 12.8184H2.41182V11.7274H3.48052V10.6365H2.41182V11.7274H1.34312V12.8184Z" fill="white" fill-opacity="0.9"/>
    </g>
    <defs>
        <clipPath id="clip0_1248_1188">
            <rect width="12.8244" height="13.0909" fill="white" transform="translate(0.274414 0.818359)"/>
        </clipPath>
    </defs>
</svg>

<svg xmlns="http://www.w3.org/2000/svg" width="14" height="14" fill="none"><g clip-path="url(#a)"><path fill="#fff" fill-opacity=".9" d="M7.221.818H6.152V3h1.069zm-6.947 6V7.91h2.138V6.82zm12.825 0V7.91H10.96V6.82zM7.22 13.91H6.152v-2.182h1.069zM4.549 4.091h4.275v1.091H4.549zM3.481 5.182h1.068v4.364H3.481zm1.068 5.454v-1.09h4.275v1.09zm5.344-1.09H8.824V5.182h1.069zm1.068-7.637h1.07V3h-1.07zm0 1.091v1.091H9.893v-1.09zm1.07 9.818h-1.07v-1.09h1.07zm-1.07-1.09H9.893v-1.091h1.068zm-8.55-9.819H1.344V3h1.069v1.091H3.48v-1.09H2.41zM1.344 12.82h1.069v-1.092H3.48v-1.09H2.41v1.09H1.344z"/></g><defs><clipPath id="a"><path fill="#fff" d="M.274.818h12.824V13.91H.274z"/></clipPath></defs></svg>
